svg/medication.svg

<svg xmlns="http://www.w3.org/2000/svg" viewBox="0 0 24 24"><path d="M6 3h12v2H6zm11 3H7c-1.1 0-2 .9-2 2v11c0 1.1.9 2 2 2h10c1.1 0 2-.9 2-2V8c0-1.1-.9-2-2-2m-1 9h-2.5v2.5h-3V15H8v-3h2.5V9.5h3V12H16z"/></svg>

<svg xmlns="http://www.w3.org/2000/svg" id="mdi-medication" viewBox="0 0 24 24"><path d="M6 3H18V5H6V3M17 6H7C5.9 6 5 6.9 5 8V19C5 20.1 5.9 21 7 21H17C18.1 21 19 20.1 19 19V8C19 6.9 18.1 6 17 6M16 15H13.5V17.5H10.5V15H8V12H10.5V9.5H13.5V12H16V15Z" /></svg>
